demos/KANBAN/public/icons/Google.svg

<svg width="24" height="24" viewBox="0 0 24 24" fill="none" xmlns="http://www.w3.org/2000/svg">
<g clip-path="url(#clip0_1_151)">
<path d="M23.766 12.2765C23.766 11.4608 23.6999 10.6406 23.5588 9.83813H12.24V14.4591H18.7217C18.4528 15.9495 17.5885 17.2679 16.323 18.1056V21.104H20.19C22.4608 19.014 23.766 15.9274 23.766 12.2765Z" fill="#4285F4"/>
<path d="M12.24 24.0008C15.4764 24.0008 18.2058 22.9382 20.1944 21.1039L16.3274 18.1055C15.2516 18.8375 13.8626 19.252 12.2444 19.252C9.11376 19.252 6.45934 17.1399 5.50693 14.3003H1.51648V17.3912C3.55359 21.4434 7.70278 24.0008 12.24 24.0008Z" fill="#34A853"/>
<path d="M5.50253 14.3002C4.99987 12.8099 4.99987 11.196 5.50253 9.70569V6.61475H1.51649C-0.18551 10.0055 -0.18551 14.0004 1.51649 17.3912L5.50253 14.3002Z" fill="#FBBC04"/>
<path d="M12.24 4.74966C13.9508 4.7232 15.6043 5.36697 16.8433 6.54867L20.2694 3.12262C18.1 1.0855 15.2207 -0.034466 12.24 0.000808666C7.70277 0.000808666 3.55359 2.55822 1.51648 6.61481L5.50252 9.70575C6.45052 6.86173 9.10935 4.74966 12.24 4.74966Z" fill="#EA4335"/>
</g>
<defs>
<clipPath id="clip0_1_151">
<rect width="24" height="24" fill="white"/>
</clipPath>
</defs>
</svg>

<svg xmlns="http://www.w3.org/2000/svg" width="24" height="24" fill="none"><g clip-path="url(#a)"><path fill="#4285F4" d="M23.766 12.277c0-.816-.066-1.636-.207-2.439H12.24v4.621h6.482a5.554 5.554 0 0 1-2.399 3.647v2.998h3.867c2.27-2.09 3.576-5.177 3.576-8.827Z"/><path fill="#34A853" d="M12.24 24c3.236 0 5.966-1.062 7.954-2.896l-3.867-2.998c-1.075.731-2.464 1.146-4.083 1.146-3.13 0-5.785-2.112-6.737-4.952h-3.99v3.091a12.002 12.002 0 0 0 10.723 6.61Z"/><path fill="#FBBC04" d="M5.503 14.3a7.188 7.188 0 0 1 0-4.594V6.615H1.516a12.01 12.01 0 0 0 0 10.776l3.987-3.09Z"/><path fill="#EA4335" d="M12.24 4.75a6.52 6.52 0 0 1 4.603 1.799l3.426-3.426A11.533 11.533 0 0 0 12.24 0 11.998 11.998 0 0 0 1.516 6.615l3.987 3.09C6.45 6.863 9.109 4.75 12.24 4.75Z"/></g><defs><clipPath id="a"><path fill="#fff" d="M0 0h24v24H0z"/></clipPath></defs></svg>
